img/glass-recycling.svg

<?xml version="1.0" encoding="UTF-8" standalone="no"?>
<!-- Created with Inkscape (http://www.inkscape.org/) -->

<svg
   xmlns:dc="http://purl.org/dc/elements/1.1/"
   xmlns:cc="http://creativecommons.org/ns#"
   xmlns:rdf="http://www.w3.org/1999/02/22-rdf-syntax-ns#"
   xmlns:svg="http://www.w3.org/2000/svg"
   xmlns="http://www.w3.org/2000/svg"
   xmlns:sodipodi="http://sodipodi.sourceforge.net/DTD/sodipodi-0.dtd"
   xmlns:inkscape="http://www.inkscape.org/namespaces/inkscape"
   width="210mm"
   height="297mm"
   viewBox="0 0 744.09448819 1052.3622047"
   id="svg2"
   version="1.1"
   inkscape:version="0.92.4 (unknown)"
   sodipodi:docname="glass-recycling.svg">
  <defs
     id="defs4">
    <inkscape:path-effect
       effect="spiro"
       id="path-effect5143"
       is_visible="true" />
  </defs>
  <sodipodi:namedview
     id="base"
     pagecolor="#ffffff"
     bordercolor="#666666"
     borderopacity="1.0"
     inkscape:pageopacity="0.0"
     inkscape:pageshadow="2"
     inkscape:zoom="3.959798"
     inkscape:cx="313.81019"
     inkscape:cy="780.96696"
     inkscape:document-units="px"
     inkscape:current-layer="layer1"
     showgrid="false"
     inkscape:window-width="2493"
     inkscape:window-height="1385"
     inkscape:window-x="2627"
     inkscape:window-y="27"
     inkscape:window-maximized="1" />
  <metadata
     id="metadata7">
    <rdf:RDF>
      <cc:Work
         rdf:about="">
        <dc:format>image/svg+xml</dc:format>
        <dc:type
           rdf:resource="http://purl.org/dc/dcmitype/StillImage" />
        <dc:title />
      </cc:Work>
    </rdf:RDF>
  </metadata>
  <g
     inkscape:label="Layer 1"
     inkscape:groupmode="layer"
     id="layer1">
    <path
       style="opacity:1;fill:#005844;fill-opacity:1;fill-rule:evenodd;stroke:none;stroke-width:1.3003124;stroke-linejoin:miter;stroke-miterlimit:4;stroke-dasharray:none;stroke-opacity:1"
       d="m 263.48787,304.45531 c -16.14008,0 -29.22307,13.08299 -29.22307,29.22308 v 36.0097 h -3.78381 v 8.87126 h 66.01578 v -8.87126 h -3.7838 v -36.0097 c 0,-16.14008 -13.08504,-29.22308 -29.2251,-29.22308 z"
       id="circle5153" />
    <path
       style="opacity:1;fill:#ffffff;fill-opacity:1;fill-rule:evenodd;stroke:none;stroke-width:1.3003124;stroke-linejoin:miter;stroke-miterlimit:4;stroke-dasharray:none;stroke-opacity:1"
       d="m 281.62272,328.85163 a 5.8709286,5.8709286 0 0 1 -5.87092,5.87093 5.8709286,5.8709286 0 0 1 -5.87093,-5.87093 5.8709286,5.8709286 0 0 1 5.87093,-5.87092 5.8709286,5.8709286 0 0 1 5.87092,5.87092 z"
       id="path13" />
    <path
       style="opacity:1;fill:#ffffff;fill-opacity:1;fill-rule:evenodd;stroke:none;stroke-width:1.3003124;stroke-linejoin:miter;stroke-miterlimit:4;stroke-dasharray:none;stroke-opacity:1"
       d="m 257.09531,328.85163 a 5.8709286,5.8709286 0 0 1 -5.87094,5.87093 5.8709286,5.8709286 0 0 1 -5.87092,-5.87093 5.8709286,5.8709286 0 0 1 5.87092,-5.87092 5.8709286,5.8709286 0 0 1 5.87094,5.87092 z"
       id="path11" />
  </g>
</svg>

<?xml version="1.0" encoding="UTF-8" standalone="no"?>
<!-- Created with Inkscape (http://www.inkscape.org/) -->

<svg
   xmlns:dc="http://purl.org/dc/elements/1.1/"
   xmlns:cc="http://creativecommons.org/ns#"
   xmlns:rdf="http://www.w3.org/1999/02/22-rdf-syntax-ns#"
   xmlns:svg="http://www.w3.org/2000/svg"
   xmlns="http://www.w3.org/2000/svg"
   xmlns:sodipodi="http://sodipodi.sourceforge.net/DTD/sodipodi-0.dtd"
   xmlns:inkscape="http://www.inkscape.org/namespaces/inkscape"
   width="210mm"
   height="297mm"
   viewBox="0 0 744.09448819 1052.3622047"
   id="svg2"
   version="1.1"
   inkscape:version="0.92.4 (unknown)"
   sodipodi:docname="glass-recycling.svg">
  <defs
     id="defs4">
    <inkscape:path-effect
       effect="spiro"
       id="path-effect5143"
       is_visible="true" />
  </defs>
  <sodipodi:namedview
     id="base"
     pagecolor="#ffffff"
     bordercolor="#666666"
     borderopacity="1.0"
     inkscape:pageopacity="0.0"
     inkscape:pageshadow="2"
     inkscape:zoom="3.959798"
     inkscape:cx="313.81019"
     inkscape:cy="780.96696"
     inkscape:document-units="px"
     inkscape:current-layer="layer1"
     showgrid="false"
     inkscape:window-width="2560"
     inkscape:window-height="1412"
     inkscape:window-x="0"
     inkscape:window-y="0"
     inkscape:window-maximized="1" />
  <metadata
     id="metadata7">
    <rdf:RDF>
      <cc:Work
         rdf:about="">
        <dc:format>image/svg+xml</dc:format>
        <dc:type
           rdf:resource="http://purl.org/dc/dcmitype/StillImage" />
        <dc:title />
      </cc:Work>
    </rdf:RDF>
  </metadata>
  <g
     inkscape:label="Layer 1"
     inkscape:groupmode="layer"
     id="layer1">
    <path
       id="circle5153"
       style="opacity:1;fill:#005844;fill-opacity:1;fill-rule:evenodd;stroke:none;stroke-width:1.3003124;stroke-linejoin:miter;stroke-miterlimit:4;stroke-dasharray:none;stroke-opacity:1"
       d="M 281.62272,328.85163 A 5.8709286,5.8709286 0 0 1 275.7518,334.72256 5.8709286,5.8709286 0 0 1 269.88087,328.85163 5.8709286,5.8709286 0 0 1 275.7518,322.98071 5.8709286,5.8709286 0 0 1 281.62272,328.85163 Z M 257.09531,328.85163 A 5.8709286,5.8709286 0 0 1 251.22437,334.72256 5.8709286,5.8709286 0 0 1 245.35345,328.85163 5.8709286,5.8709286 0 0 1 251.22437,322.98071 5.8709286,5.8709286 0 0 1 257.09531,328.85163 Z M 263.48787,304.45531 C 247.34779,304.45531 234.2648,317.5383 234.2648,333.67839 V 369.68809 H 230.48099 V 378.55935 H 296.49677 V 369.68809 H 292.71297 V 333.67839 C 292.71297,317.53831 279.62793,304.45531 263.48787,304.45531 Z"
       inkscape:connector-curvature="0" />
  </g>
</svg>
